src/assets/Imgs/social/twitter.svg

<svg fill="none" height="24" viewBox="0 0 24 24" width="24" xmlns="http://www.w3.org/2000/svg"><path d="m18 8.625c-.45.225-.9.3-1.425.375.525-.3.9-.75 1.05-1.35-.45.3-.975.45-1.575.6-.45-.45-1.125-.75-1.8-.75-1.575 0-2.775 1.5-2.4 3-2.025-.075-3.825-1.05-5.1-2.55-.675 1.125-.3 2.55.75 3.3-.375 0-.75-.15-1.125-.3 0 1.125.825 2.175 1.95 2.475-.375.075-.75.15-1.125.075.3.975 1.2 1.725 2.325 1.725-.9.675-2.25 1.05-3.525.9 1.125.675 2.4 1.125 3.75 1.125 4.575 0 7.125-3.825 6.975-7.35.525-.3.975-.75 1.275-1.275z" fill="#1da1f2"/></svg>

<svg width="24" height="24" viewBox="0 0 24 24" fill="none" xmlns="http://www.w3.org/2000/svg">
<g id="Twitter">
<path id="twitter" d="M18 8.625C17.55 8.85 17.1 8.925 16.575 9C17.1 8.7 17.475 8.25 17.625 7.65C17.175 7.95 16.65 8.1 16.05 8.25C15.6 7.8 14.925 7.5 14.25 7.5C12.675 7.5 11.475 9 11.85 10.5C9.825 10.425 8.025 9.45 6.75 7.95C6.075 9.075 6.45 10.5 7.5 11.25C7.125 11.25 6.75 11.1 6.375 10.95C6.375 12.075 7.2 13.125 8.325 13.425C7.95 13.5 7.575 13.575 7.2 13.5C7.5 14.475 8.4 15.225 9.525 15.225C8.625 15.9 7.275 16.275 6 16.125C7.125 16.8 8.4 17.25 9.75 17.25C14.325 17.25 16.875 13.425 16.725 9.9C17.25 9.6 17.7 9.15 18 8.625Z" fill="#1DA1F2"/>
</g>
</svg>
